svgs/solid/camcorder.svg

<svg xmlns="http://www.w3.org/2000/svg" viewBox="0 0 576 512"><!-- Font Awesome Pro 6.0.0-alpha2 by @fontawesome - https://fontawesome.com License - https://fontawesome.com/license (Commercial License) --><path d="M525.625 165.75L416 241.25V398.75L525.625 474.25C546.75 488.75 576 473.875 576 448.375V191.5C576 166.125 546.875 151.125 525.625 165.75ZM320 160H96V128C96 110.4 110.4 96 128 96H288C305.673 96 320 81.673 320 64V64C320 46.327 305.673 32 288 32H128C74.981 32 32 74.981 32 128V162.875C12.875 169.5 0 187.5 0 207.75V416C0 451.346 28.654 480 64 480H320C355.346 480 384 451.346 384 416V224C384 188.654 355.346 160 320 160ZM304 256H80C71.164 256 64 248.836 64 240C64 231.162 71.164 224 80 224H304C312.838 224 320 231.162 320 240C320 248.836 312.838 256 304 256Z"/></svg>

<svg xmlns="http://www.w3.org/2000/svg" viewBox="0 0 576 512"><!--! Font Awesome Pro 6.0.0-alpha3 by @fontawesome - https://fontawesome.com License - https://fontawesome.com/license (Commercial License) --><path d="M525.6 165.8L416 241.3v157.5l109.6 75.48C546.8 488.7 576 473.9 576 448.4V191.5C576 166.1 546.9 151.2 525.6 165.8zM320 159.1H96V128c0-17.6 14.4-32 32-32h160C305.7 96 320 81.67 320 64S305.7 32 288 32H128C74.98 32 32 74.98 32 128v34.88C12.88 169.5 0 187.5 0 207.8l.0001 208.2c0 35.35 28.65 63.1 64 63.1l256-.0016c35.35 0 64-28.65 64-63.1V223.1C384 188.7 355.3 159.1 320 159.1zM304 255.1h-224c-8.836 0-16-7.164-16-15.1c0-8.838 7.164-16 16-16h224c8.838 0 16 7.162 16 16C320 248.8 312.8 255.1 304 255.1z"/></svg>
